X:1
T:I Am the Door
T:I Am the Door
T:James McGranahan
T:Daniel Webster Whittle, 1881
T:Public Domain Courtesy of the Cyber Hymnal™
T:Public Domain Courtesy of the Cyber Hymnal™
C:James McGranahan
Z:Public Domain
Z:Courtesy of the Cyber Hymnal™
%%score ( 1 2 ) ( 3 4 )
L:1/8
Q:1/4=83
M:6/8
K:C
V:1 treble 
V:2 treble 
V:3 bass 
V:4 bass 
V:1
"^Moderato" [EG]3 | [EG]>[^D^F][EG] [=FA]>[EG][D^F] | ([E-G]3 [CE]2) [EG] | %3
w: 1.~O|what shall I do to be|saved? * The|
w: 2.~O|what shall I do to be|saved? * No|
w: 3.~O|what shall I do to be|saved? * So|
w: 4.~I|en- ter the wide o- pen|door, * In|
 [^D^Fc]2 [DFc]!<(! [DFc][DF=d]!<)![=DFc] |!>(! ([EGc]3 [DGB]2)!>)! [FA] | %5
w: gath- ering storm I be-|hold, * Ex-|
w: light, no hope can I|see, * No|
w: vile, so bur- dened with|sin, * O|
w: Christ I now have be-|lieved; * I’m|
 [EG]>[^D^F][EG] [=FA][EG][D^F] | ([EG]3 [Gc]2) [^Gd] | [Ae]2 [Ae] [Ae][Af][Ae] | %8
w: posed to the wrath of my|God; * Is|there no shel- ter- ing|
w: help in my- self can I|find; * Is|there no mer- cy for|
w: how to the fold may I|come, * How|may I en- ter there-|
w: cleansed from my sins by His|blood; * I|trust, and now I am|
 ([^G-e]3 [Gd]2) [Ac] | [GB]2 [Gd] [^Fd][Fc][FA] | G6 ||"^Refrain" G3 [^FA]2 [=FB] | %12
w: fold, * Is|there no shel- ter- ing|fold?||
w: me, * Is|there no mer- cy for|me?||
w: in, * How|may I en- ter there-|in?||
w: saved, * I|trust, and now I am|saved!||
 [Ec]3- [Ec]2 [Ec] | [Fc]2 [Fc] [Ac][GB][FA] | [EG]2 [DF] [CE]3 | [B,D]3 [DG]2 [DA] | (B3 d3) | %17
w: |||||
w: |||||
w: |||||
w: |||||
 (d2 c) [GB]2 [DA] | G6 | [EG]3 [FA]2 [FB] | [Ec]3- [Ec]2 [Ec] | [Ec]2 [Ec] [Ec][GB][FA] | %22
w: |||||
w: |||||
w: |||||
w: |||||
 [EG]2 [DF] ([CE]2 [EG]) | [FA]3 [FB]2 [FB] | [Gc]3 [Af]3 | [Ge]3 [Fd]3 | !fermata![Ec]3 |] %27
w: |||||
w: |||||
w: |||||
w: |||||
V:2
 x3 | x6 | x6 | x6 | x6 | x6 | x6 | x6 | x6 | x6 | G6 || G3 x3 | x6 | x6 | x6 | x6 | G6 | G3 x3 | %18
 (D3 F3) | x6 | x6 | x6 | x6 | x6 | x6 | x6 | x3 |] %27
V:3
 [C,C]3 | [C,C]>[C,C][C,C] [C,C]>[C,C][C,C] | ([C,-C]3 [C,G,]2) [C,C] | A,2 =A, _A,A,A, | %4
w: ~|~ ~ ~ ~ ~ ~|~ * ~|~ ~ ~ ~ ~|
 G,3- G,2 G, | [C,C]>[C,C][C,C] [C,C][C,C][C,C] | ([C,C]3 [C,E]2) [B,,D] | %7
w: ~ * ~|~ ~ ~ ~ ~ ~|~ * ~|
 [A,,C]2 [A,,C] [A,,C][A,,C][A,,C] | [E,B,]3- [E,B,]2 [A,,E] | [D,D]2 [D,B,] [D,B,][D,B,][D,C] | %10
w: ~ ~ ~ ~ ~|~ * ~|~ ~ ~ ~ ~|
 [G,B,]6 || [G,B,]3 [G,C]2 [G,D] | [C,C]3- [C,G,C]2 [C,G,] | [F,A,]2 [F,A,] [F,C][F,C][F,C] | %14
w: ~|I am the|door, * by|Me if an- y man|
 [C,C]2 [C,G,] [C,G,]3 | G,3 [G,B,]2 [G,C] | (D3 B,3) | (B,2 A,) [D,D]2 [D,C] | !fermata![G,,B,]6 | %19
w: en- ter in,|He shall be|saved, *|he * shall be|saved;|
 [C,C]3 [F,C]2 [D,G,] | [C,G,]3- [C,G,]2 [C,G,] | [C,G,]2 [C,G,] [C,C][C,C][C,C] | %22
w: I am the|door, * by|Me if an- y man|
 [C,C]2 [C,G,] (G,2 C) | [F,C]3 [D,G,]2 [D,G,] | [E,C]3 [F,C]3 | [G,C]3 (B,2 G,) | %26
w: en- ter in, *|He shall be|saved, he|shall be *|
 !fermata![C,G,]3 |] %27
w: saved.|
V:4
 x3 | x6 | x6 | _A,2 _A, A,A,A, | G,3- G,2 G, | x6 | x6 | x6 | x6 | x6 | x6 || x6 | x6 | x6 | x6 | %15
 G,3 x3 | G,6 | D,3 x3 | x6 | x6 | x6 | x6 | x3 C,3 | x6 | x6 | x3 G,,3 | x3 |] %27

